docs/img/rub.svg

<svg width="11" height="21" fill="none" xmlns="http://www.w3.org/2000/svg"><path d="M6.32 4.2H2.652V14h1.036v-3.094H6.32c2.492 0 4.004-1.26 4.004-3.346 0-2.1-1.512-3.36-4.004-3.36zm-.028 5.796H3.688v-4.9h2.604c1.96 0 2.996.896 2.996 2.464 0 1.54-1.036 2.436-2.996 2.436z" fill="#fff"/><path fill="#fff" d="M0 10h6v1H0zm0 2h6v1H0z"/></svg>

<svg width="11" height="21" viewBox="0 0 11 21" fill="none" xmlns="http://www.w3.org/2000/svg">
<path d="M6.32 4.2H2.652V14H3.688V10.906H6.32C8.812 10.906 10.324 9.646 10.324 7.56C10.324 5.46 8.812 4.2 6.32 4.2ZM6.292 9.996H3.688V5.096H6.292C8.252 5.096 9.288 5.992 9.288 7.56C9.288 9.1 8.252 9.996 6.292 9.996Z" fill="white"/>
<rect y="10" width="6" height="1" fill="white"/>
<rect y="12" width="6" height="1" fill="white"/>
</svg>
